img/Logo.svg

<svg width="144" height="29" viewBox="0 0 144 29" fill="none" xmlns="http://www.w3.org/2000/svg">
<g clip-path="url(#clip0_2_443)">
<path d="M43.2661 21.8144V7.15527H46.0304V19.3014H52.7317V21.8144H43.2661Z" fill="white"/>
<path d="M58.6997 22.1075C57.6666 22.1075 56.7382 21.898 55.9145 21.4792C55.0907 21.0604 54.4415 20.4531 53.9669 19.6573C53.4922 18.8615 53.2549 17.9052 53.2549 16.7883V16.4532C53.2549 15.3363 53.4922 14.38 53.9669 13.5842C54.4415 12.7884 55.0907 12.1811 55.9145 11.7622C56.7382 11.3435 57.6666 11.134 58.6997 11.134C59.7328 11.134 60.6613 11.3435 61.4849 11.7622C62.3086 12.1811 62.9578 12.7884 63.4325 13.5842C63.9072 14.38 64.1445 15.3363 64.1445 16.4532V16.7883C64.1445 17.9052 63.9072 18.8615 63.4325 19.6573C62.9578 20.4531 62.3086 21.0604 61.4849 21.4792C60.6613 21.898 59.7328 22.1075 58.6997 22.1075ZM58.6997 19.762C59.5094 19.762 60.1796 19.5037 60.7101 18.9872C61.2406 18.4566 61.5059 17.7027 61.5059 16.7255V16.516C61.5059 15.5387 61.2406 14.7918 60.7101 14.2752C60.1935 13.7448 59.5234 13.4794 58.6997 13.4794C57.89 13.4794 57.2198 13.7448 56.6893 14.2752C56.1587 14.7918 55.8935 15.5387 55.8935 16.516V16.7255C55.8935 17.7027 56.1587 18.4566 56.6893 18.9872C57.2198 19.5037 57.89 19.762 58.6997 19.762Z" fill="white"/>
<path d="M65.1348 16.6626V16.3276C65.1348 15.2386 65.3511 14.3101 65.7839 13.5423C66.2167 12.7605 66.7891 12.1671 67.5011 11.7622C68.2272 11.3435 69.0159 11.134 69.8676 11.134C70.8169 11.134 71.5359 11.3015 72.0245 11.6366C72.5132 11.9717 72.8692 12.3207 73.0926 12.6837H73.4696V11.4272H76.0663V23.6571C76.0663 24.3692 75.8569 24.9345 75.4381 25.3534C75.0192 25.7862 74.4608 26.0026 73.7627 26.0026H66.8101V23.699H72.8413C73.2322 23.699 73.4276 23.4896 73.4276 23.0707V20.3693H73.0507C72.9111 20.5927 72.7156 20.823 72.4644 21.0604C72.2131 21.2837 71.878 21.4722 71.4592 21.6258C71.0403 21.7793 70.5098 21.8562 69.8676 21.8562C69.0159 21.8562 68.2272 21.6537 67.5011 21.2489C66.7891 20.83 66.2167 20.2366 65.7839 19.4688C65.3511 18.687 65.1348 17.7516 65.1348 16.6626ZM70.6215 19.5525C71.4313 19.5525 72.1083 19.2942 72.6528 18.7777C73.1973 18.2611 73.4696 17.5352 73.4696 16.5998V16.3904C73.4696 15.441 73.1973 14.715 72.6528 14.2124C72.1223 13.6959 71.4452 13.4376 70.6215 13.4376C69.8117 13.4376 69.1346 13.6959 68.5901 14.2124C68.0456 14.715 67.7734 15.441 67.7734 16.3904V16.5998C67.7734 17.5352 68.0456 18.2611 68.5901 18.7777C69.1346 19.2942 69.8117 19.5525 70.6215 19.5525Z" fill="white"/>
<path d="M82.9918 22.1075C81.9587 22.1075 81.0302 21.898 80.2065 21.4792C79.3828 21.0604 78.7336 20.4531 78.259 19.6573C77.7843 18.8615 77.5469 17.9052 77.5469 16.7883V16.4532C77.5469 15.3363 77.7843 14.38 78.259 13.5842C78.7336 12.7884 79.3828 12.1811 80.2065 11.7622C81.0302 11.3435 81.9587 11.134 82.9918 11.134C84.0249 11.134 84.9532 11.3435 85.777 11.7622C86.6007 12.1811 87.2499 12.7884 87.7246 13.5842C88.1993 14.38 88.4366 15.3363 88.4366 16.4532V16.7883C88.4366 17.9052 88.1993 18.8615 87.7246 19.6573C87.2499 20.4531 86.6007 21.0604 85.777 21.4792C84.9532 21.898 84.0249 22.1075 82.9918 22.1075ZM82.9918 19.762C83.8015 19.762 84.4717 19.5037 85.0021 18.9872C85.5327 18.4566 85.7979 17.7027 85.7979 16.7255V16.516C85.7979 15.5387 85.5327 14.7918 85.0021 14.2752C84.4856 13.7448 83.8155 13.4794 82.9918 13.4794C82.182 13.4794 81.5119 13.7448 80.9814 14.2752C80.4508 14.7918 80.1856 15.5387 80.1856 16.516V16.7255C80.1856 17.7027 80.4508 18.4566 80.9814 18.9872C81.5119 19.5037 82.182 19.762 82.9918 19.762Z" fill="white"/>
<path d="M89.9297 21.8144V11.4273H92.5685V21.8144H89.9297ZM91.2491 10.2128C90.7739 10.2128 90.3698 10.0591 90.0341 9.75197C89.7133 9.44489 89.5527 9.03998 89.5527 8.53739C89.5527 8.0348 89.7133 7.62992 90.0341 7.32278C90.3698 7.01564 90.7739 6.86206 91.2491 6.86206C91.7378 6.86206 92.1428 7.01564 92.4632 7.32278C92.7845 7.62992 92.9456 8.0348 92.9456 8.53739C92.9456 9.03998 92.7845 9.44489 92.4632 9.75197C92.1428 10.0591 91.7378 10.2128 91.2491 10.2128Z" fill="white"/>
<path d="M94.5503 26.0026V11.4272H97.1468V12.6837H97.5239C97.7606 12.2788 98.1305 11.9228 98.6336 11.6156C99.1358 11.2946 99.8549 11.134 100.791 11.134C101.628 11.134 102.403 11.3435 103.115 11.7622C103.827 12.1671 104.4 12.7674 104.832 13.5632C105.265 14.359 105.482 15.3224 105.482 16.4532V16.7883C105.482 17.9191 105.265 18.8824 104.832 19.6782C104.4 20.474 103.827 21.0813 103.115 21.5001C102.403 21.905 101.628 22.1075 100.791 22.1075C100.163 22.1075 99.6317 22.0307 99.1988 21.8771C98.7803 21.7375 98.4383 21.5559 98.1728 21.3326C97.9217 21.0952 97.7192 20.8579 97.5653 20.6206H97.1882V26.0026H94.5503ZM99.9944 19.8038C100.819 19.8038 101.496 19.5456 102.026 19.029C102.57 18.4985 102.843 17.7307 102.843 16.7255V16.516C102.843 15.5108 102.57 14.75 102.026 14.2334C101.481 13.7028 100.804 13.4376 99.9944 13.4376C99.1853 13.4376 98.5076 13.7028 97.9631 14.2334C97.4186 14.75 97.1468 15.5108 97.1468 16.516V16.7255C97.1468 17.7307 97.4186 18.4985 97.9631 19.029C98.5076 19.5456 99.1853 19.8038 99.9944 19.8038Z" fill="white"/>
<path d="M111.276 22.1075C109.922 22.1075 108.812 21.8142 107.946 21.2279C107.082 20.6415 106.558 19.8038 106.376 18.7149L108.805 18.0866C108.903 18.5753 109.063 18.9592 109.287 19.2384C109.524 19.5176 109.81 19.7201 110.146 19.8458C110.494 19.9575 110.871 20.0133 111.276 20.0133C111.891 20.0133 112.345 19.9086 112.637 19.6992C112.931 19.4758 113.077 19.2035 113.077 18.8824C113.077 18.5613 112.938 18.317 112.659 18.1494C112.379 17.968 111.933 17.8214 111.319 17.7097L110.732 17.6049C110.006 17.4654 109.343 17.2769 108.743 17.0396C108.142 16.7883 107.66 16.4462 107.298 16.0134C106.935 15.5807 106.753 15.0222 106.753 14.3381C106.753 13.3049 107.13 12.5162 107.884 11.9717C108.638 11.4132 109.629 11.134 110.858 11.134C112.016 11.134 112.98 11.3922 113.748 11.9088C114.516 12.4254 115.018 13.1025 115.255 13.9402L112.806 14.6941C112.694 14.1636 112.464 13.7866 112.114 13.5632C111.779 13.3398 111.36 13.2282 110.858 13.2282C110.355 13.2282 109.971 13.319 109.706 13.5004C109.44 13.668 109.308 13.9053 109.308 14.2124C109.308 14.5475 109.448 14.7988 109.727 14.9663C110.006 15.1199 110.383 15.2386 110.858 15.3224L111.444 15.427C112.226 15.5666 112.931 15.7552 113.559 15.9925C114.201 16.2159 114.704 16.5439 115.067 16.9767C115.443 17.3956 115.632 17.968 115.632 18.6939C115.632 19.7829 115.235 20.6276 114.439 21.2279C113.657 21.8142 112.603 22.1075 111.276 22.1075Z" fill="white"/>
<path d="M120.96 21.9819C120.15 21.9819 119.438 21.8004 118.824 21.4374C118.223 21.0605 117.756 20.5439 117.421 19.8877C117.086 19.2315 116.918 18.4777 116.918 17.626V11.4272H119.557V17.4166C119.557 18.1984 119.745 18.7847 120.122 19.1757C120.513 19.5666 121.065 19.7621 121.777 19.7621C122.587 19.7621 123.215 19.4968 123.661 18.9663C124.109 18.4218 124.332 17.6678 124.332 16.7046V11.4272H126.971V21.8143H124.373V20.4532H123.997C123.83 20.8022 123.515 21.1442 123.055 21.4793C122.594 21.8143 121.895 21.9819 120.96 21.9819Z" fill="white"/>
<path d="M128.964 21.8143V11.4273H131.56V12.5581H131.937C132.119 12.2091 132.42 11.9089 132.838 11.6577C133.257 11.3923 133.809 11.2598 134.493 11.2598C135.232 11.2598 135.826 11.4064 136.273 11.6995C136.719 11.9788 137.061 12.3487 137.299 12.8095H137.676C137.913 12.3627 138.248 11.9927 138.681 11.6995C139.114 11.4064 139.728 11.2598 140.523 11.2598C141.166 11.2598 141.746 11.3994 142.262 11.6786C142.792 11.9439 143.212 12.3557 143.519 12.9141C143.84 13.4586 144 14.1497 144 14.9874V21.8143H141.361V15.1758C141.361 14.6034 141.215 14.1777 140.922 13.8984C140.629 13.6053 140.217 13.4586 139.686 13.4586C139.086 13.4586 138.618 13.654 138.283 14.045C137.962 14.4219 137.802 14.9664 137.802 15.6784V21.8143H135.163V15.1758C135.163 14.6034 135.016 14.1777 134.723 13.8984C134.43 13.6053 134.018 13.4586 133.487 13.4586C132.887 13.4586 132.419 13.654 132.084 14.045C131.763 14.4219 131.603 14.9664 131.603 15.6784V21.8143H128.964Z" fill="white"/>
<path d="M34.9033 13.9614C34.9033 10.2587 33.4324 6.70748 30.8141 4.0892C28.1958 1.47093 24.6447 4.85564e-07 20.9419 0C17.2391 -4.85563e-07 13.688 1.47093 11.0697 4.0892C8.4514 6.70748 6.98047 10.2587 6.98047 13.9614H11.3435C12.7892 13.9614 13.9168 12.7499 14.4463 11.4045C14.794 10.5213 15.3216 9.70956 16.0057 9.02529C17.3149 7.71617 19.0905 6.98071 20.9419 6.98071C22.7933 6.98071 24.5689 7.71617 25.878 9.02529C27.1872 10.3344 27.9226 12.11 27.9226 13.9614H34.9033Z" fill="url(#paint0_linear_2_443)"/>
<path d="M26.8598 19.3042C27.5614 17.6103 27.9226 15.7948 27.9226 13.9614H34.9025C34.9025 21.6721 28.6518 27.9228 20.9411 27.9228C19.7336 27.9228 18.5618 27.7695 17.4443 27.4813C18.0766 27.3184 18.698 27.111 19.3039 26.86C20.9978 26.1584 22.5369 25.1301 23.8333 23.8336C25.1298 22.5372 26.1582 20.9981 26.8598 19.3042Z" fill="#FBCF8E"/>
<path d="M0 13.9614C-2.6229e-07 15.7949 0.361122 17.6104 1.06275 19.3043C1.76438 20.9982 2.79276 22.5373 4.0892 23.8337C5.38564 25.1301 6.92474 26.1585 8.61861 26.8601C10.3125 27.5618 12.128 27.9229 13.9614 27.9229C15.7948 27.9229 17.6103 27.5618 19.3042 26.8601C20.9981 26.1585 22.5372 25.1301 23.8336 23.8337C25.1301 22.5373 26.1584 20.9982 26.8601 19.3043C27.5617 17.6104 27.9229 15.7949 27.9229 13.9614H23.5598C22.1141 13.9614 20.9866 15.173 20.457 16.5182C20.442 16.5566 20.4265 16.5947 20.4107 16.6329C20.0599 17.4798 19.5458 18.2494 18.8975 18.8976C18.2493 19.5457 17.4797 20.06 16.6328 20.4108C15.7859 20.7616 14.8782 20.9422 13.9614 20.9422C13.0447 20.9422 12.137 20.7616 11.2901 20.4108C10.4431 20.06 9.67356 19.5457 9.02529 18.8976C8.37708 18.2494 7.8629 17.4798 7.51208 16.6329C7.16126 15.7859 6.98071 14.8782 6.98071 13.9614H0Z" fill="url(#paint1_linear_2_443)"/>
<path d="M0.00146484 13.9614C0.00146484 6.25072 6.25218 0 13.9628 0C15.1701 0 16.3415 0.153221 17.4589 0.441291C15.0614 1.05891 12.8497 2.30882 11.0692 4.08921C8.45096 6.70746 6.98005 10.2587 6.98005 13.9614H0.00146484Z" fill="#73E5E2"/>
</g>
<defs>
<linearGradient id="paint0_linear_2_443" x1="34.9033" y1="6.98071" x2="6.98047" y2="6.98071" gradientUnits="userSpaceOnUse">
<stop stop-color="#73E5E2"/>
<stop offset="1" stop-color="#394F87"/>
</linearGradient>
<linearGradient id="paint1_linear_2_443" x1="9.15408e-07" y1="20.9422" x2="27.9229" y2="20.9422" gradientUnits="userSpaceOnUse">
<stop stop-color="#FBDC8E"/>
<stop offset="1" stop-color="#FB958E"/>
</linearGradient>
<clipPath id="clip0_2_443">
<rect width="144" height="28.8" fill="white"/>
</clipPath>
</defs>
</svg>

<svg xmlns="http://www.w3.org/2000/svg" width="144" height="29" fill="none"><g clip-path="url(#a)"><path fill="#fff" d="M43.266 21.814V7.155h2.764v12.146h6.702v2.513h-9.466ZM58.7 22.108c-1.033 0-1.962-.21-2.786-.629a4.71 4.71 0 0 1-1.947-1.822c-.475-.796-.712-1.752-.712-2.869v-.335c0-1.117.237-2.073.712-2.869a4.71 4.71 0 0 1 1.947-1.822c.824-.418 1.753-.628 2.786-.628 1.033 0 1.961.21 2.785.628a4.712 4.712 0 0 1 1.947 1.822c.475.796.712 1.752.712 2.87v.334c0 1.117-.237 2.073-.712 2.87a4.711 4.711 0 0 1-1.947 1.821c-.824.419-1.752.629-2.785.629Zm0-2.346c.81 0 1.48-.258 2.01-.775.53-.53.796-1.284.796-2.261v-.21c0-.977-.265-1.724-.796-2.24-.517-.531-1.187-.797-2.01-.797-.81 0-1.48.266-2.01.796-.531.517-.796 1.264-.796 2.241v.21c0 .977.265 1.73.795 2.261.53.517 1.201.775 2.01.775ZM65.135 16.663v-.335c0-1.09.216-2.018.649-2.786.433-.781 1.005-1.375 1.717-1.78a4.656 4.656 0 0 1 2.367-.628c.949 0 1.668.168 2.157.503.488.335.844.684 1.068 1.047h.377v-1.257h2.596v12.23c0 .712-.21 1.277-.628 1.696-.419.433-.977.65-1.675.65H66.81v-2.304h6.031c.391 0 .587-.21.587-.628v-2.702h-.377c-.14.224-.335.454-.587.691-.25.224-.586.412-1.005.566-.419.153-.95.23-1.591.23a4.78 4.78 0 0 1-2.367-.607c-.712-.419-1.284-1.012-1.717-1.78-.433-.782-.65-1.717-.65-2.806Zm5.486 2.89c.81 0 1.487-.259 2.032-.775.544-.517.817-1.243.817-2.178v-.21c0-.949-.273-1.675-.817-2.178-.53-.516-1.208-.774-2.032-.774-.81 0-1.486.258-2.03.774-.545.503-.818 1.229-.818 2.178v.21c0 .935.273 1.661.817 2.178.545.516 1.222.774 2.031.774ZM82.992 22.108c-1.033 0-1.962-.21-2.785-.629a4.71 4.71 0 0 1-1.948-1.822c-.475-.796-.712-1.752-.712-2.869v-.335c0-1.117.237-2.073.712-2.869a4.711 4.711 0 0 1 1.948-1.822c.823-.418 1.752-.628 2.785-.628 1.033 0 1.961.21 2.785.628a4.712 4.712 0 0 1 1.948 1.822c.474.796.712 1.752.712 2.87v.334c0 1.117-.238 2.073-.712 2.87a4.711 4.711 0 0 1-1.948 1.821c-.824.419-1.752.629-2.785.629Zm0-2.346c.81 0 1.48-.258 2.01-.775.53-.53.796-1.284.796-2.261v-.21c0-.977-.265-1.724-.796-2.24-.516-.531-1.186-.797-2.01-.797-.81 0-1.48.266-2.01.796-.531.517-.796 1.264-.796 2.241v.21c0 .977.265 1.73.795 2.261.53.517 1.201.775 2.01.775ZM89.93 21.814V11.427h2.638v10.387H89.93Zm1.32-11.601c-.476 0-.88-.154-1.216-.461-.32-.307-.481-.712-.481-1.215 0-.502.16-.907.481-1.214.336-.307.74-.46 1.215-.46.489 0 .894.153 1.214.46.322.307.483.712.483 1.214 0 .503-.162.908-.483 1.215-.32.307-.725.46-1.214.46ZM94.55 26.003V11.427h2.597v1.257h.377c.237-.405.606-.761 1.11-1.068.502-.321 1.22-.482 2.157-.482.837 0 1.612.21 2.324.628.712.405 1.285 1.005 1.717 1.801.433.796.65 1.76.65 2.89v.335c0 1.131-.217 2.094-.65 2.89-.432.796-1.005 1.403-1.717 1.822a4.622 4.622 0 0 1-2.324.608c-.628 0-1.16-.077-1.592-.23-.419-.14-.76-.322-1.026-.545a3.956 3.956 0 0 1-.608-.712h-.377v5.382H94.55Zm5.444-6.2c.825 0 1.502-.257 2.032-.774.544-.53.817-1.298.817-2.303v-.21c0-1.005-.273-1.766-.817-2.283-.545-.53-1.222-.795-2.032-.795-.809 0-1.486.265-2.03.795-.545.517-.817 1.278-.817 2.283v.21c0 1.005.272 1.773.816 2.303.545.517 1.222.775 2.031.775ZM111.276 22.108c-1.354 0-2.464-.294-3.33-.88-.864-.587-1.388-1.424-1.57-2.513l2.429-.628c.098.488.258.872.482 1.151.237.28.523.482.859.608a3.68 3.68 0 0 0 1.13.167c.615 0 1.069-.104 1.361-.314.294-.223.44-.496.44-.817a.805.805 0 0 0-.418-.733c-.28-.181-.726-.328-1.34-.44l-.587-.104a11.1 11.1 0 0 1-1.989-.565c-.601-.252-1.083-.594-1.445-1.027-.363-.432-.545-.99-.545-1.675 0-1.033.377-1.822 1.131-2.366.754-.559 1.745-.838 2.974-.838 1.158 0 2.122.258 2.89.775.768.516 1.27 1.193 1.507 2.031l-2.449.754c-.112-.53-.342-.907-.692-1.13-.335-.224-.754-.336-1.256-.336-.503 0-.887.091-1.152.272a.795.795 0 0 0-.398.712c0 .335.14.587.419.754.279.154.656.273 1.131.356l.586.105c.782.14 1.487.328 2.115.566.642.223 1.145.55 1.508.984.376.419.565.991.565 1.717 0 1.089-.397 1.934-1.193 2.534-.782.586-1.836.88-3.163.88ZM120.96 21.982c-.81 0-1.522-.182-2.136-.545a3.859 3.859 0 0 1-1.403-1.55c-.335-.655-.503-1.41-.503-2.261v-6.199h2.639v5.99c0 .781.188 1.368.565 1.759.391.39.943.586 1.655.586.81 0 1.438-.265 1.884-.796.448-.544.671-1.298.671-2.261v-5.278h2.639v10.387h-2.598v-1.36h-.376c-.167.348-.482.69-.942 1.025-.461.335-1.16.503-2.095.503ZM128.964 21.814V11.427h2.596v1.131h.377c.182-.349.483-.65.901-.9.419-.266.971-.398 1.655-.398.739 0 1.333.146 1.78.44.446.279.788.649 1.026 1.11h.377a3.055 3.055 0 0 1 1.005-1.11c.433-.294 1.047-.44 1.842-.44.643 0 1.223.14 1.739.419.53.265.95.677 1.257 1.235.321.545.481 1.236.481 2.073v6.827h-2.639v-6.638c0-.573-.146-.998-.439-1.278-.293-.293-.705-.44-1.236-.44-.6 0-1.068.196-1.403.587-.321.377-.481.921-.481 1.633v6.136h-2.639v-6.638c0-.573-.147-.998-.44-1.278-.293-.293-.705-.44-1.236-.44-.6 0-1.068.196-1.403.587-.321.377-.481.921-.481 1.633v6.136h-2.639Z"/><path fill="url(#b)" d="M34.903 13.961a13.961 13.961 0 0 0-27.923 0h4.364c1.445 0 2.573-1.211 3.102-2.556a6.982 6.982 0 0 1 11.432-2.38 6.98 6.98 0 0 1 2.045 4.936h6.98Z"/><path fill="#FBCF8E" d="M26.86 19.304a13.962 13.962 0 0 0 1.063-5.343h6.98c0 7.711-6.251 13.962-13.962 13.962-1.207 0-2.38-.153-3.497-.442a13.957 13.957 0 0 0 9.416-8.177Z"/><path fill="url(#c)" d="M0 13.961a13.962 13.962 0 1 0 27.923 0H23.56c-1.446 0-2.573 1.212-3.103 2.557l-.046.115a6.98 6.98 0 0 1-12.899 0 6.981 6.981 0 0 1-.531-2.672H0Z"/><path fill="#73E5E2" d="M.001 13.961C.001 6.251 6.252 0 13.963 0c1.207 0 2.379.153 3.496.441A13.962 13.962 0 0 0 6.98 13.961H.001Z"/></g><defs><linearGradient id="b" x1="34.903" x2="6.98" y1="6.981" y2="6.981" gradientUnits="userSpaceOnUse"><stop stop-color="#73E5E2"/><stop offset="1" stop-color="#394F87"/></linearGradient><linearGradient id="c" x1="0" x2="27.923" y1="20.942" y2="20.942" gradientUnits="userSpaceOnUse"><stop stop-color="#FBDC8E"/><stop offset="1" stop-color="#FB958E"/></linearGradient><clipPath id="a"><path fill="#fff" d="M0 0h144v28.8H0z"/></clipPath></defs></svg>
